X:105
T:1st A TS.105
M:C|
L:1/8
Q:1/2=70
S:Thomas Sands’ MS,1810,Lincolnshire
R:strathspey
C:Pencil note on MS “Good Reel”
O:England;Lincolnshire
Z:vmp.Ruairidh Greig, 2011
K:G
c|BGGA F>GA>c|BGGD B,DG,c|BGGA F>G A<c|B>d A/B/c/A/ BGG:|
d|gd B/c/d/B/ gddf|gd g/a/b aeef|gd B/c/d/B/ g>de>c|c>aA>c B>GG>d|
g>d B/c/d/B/ gdde|gd g/a/b aeef|g>bd>B e>ac>A|Bd A/B/c/A/ BGG|]

